public/images/categories-makeup.svg

<svg fill="none" height="76" viewBox="0 0 76 76" width="76" xmlns="http://www.w3.org/2000/svg"><circle cx="38" cy="38" fill="#e4e4e4" r="38"/><g fill="#000"><path d="m55.4729 20.3256c-1.5509-1.4997-3.5931-2.3255-5.7504-2.3255s-4.1995.8259-5.7505 2.3256l-.104.1007c-2.5245 2.4412-3.2321 6.2238-1.7604 9.4125l2.606 5.6469v19.0197c0 1.9241 1.5653 3.4894 3.4895 3.4894h2.7074c1.924 0 3.4893-1.5653 3.4893-3.4894v-19.0114l2.7428-5.5657c1.5945-3.2359.9236-7.095-1.6697-9.6028zm-2.6354 34.1798c0 1.0626-.8645 1.9272-1.9271 1.9272h-2.7074c-1.0627 0-1.9272-.8646-1.9272-1.9272v-11.8992h3.4387v5.0348c0 .4314.3496.7812.7811.7812.4314 0 .7812-.3498.7812-.7812v-5.0348h1.5606v11.8992zm-6.5617-13.4615v-4.9674h1.185c.0012 0 .0023.0002.0033.0002.0013 0 .0025-.0002.0037-.0002h4.4052c.0012 0 .0025.0002.0036.0002.0012 0 .0023-.0002.0034-.0002h.9574v4.9674zm9.4653-11.806-2.6001 5.2764h-.3431l.6295-3.7774c.071-.4255-.2165-.828-.6421-.899-.4255-.0707-.828.2166-.899.6422l-.6723 4.0342h-.8762v-3.9058c0-.4313-.3497-.7812-.7812-.7812-.4314 0-.7811.3498-.7811.7812v3.9058h-.6487l-.6724-4.0343c-.0709-.4253-.4735-.7128-.899-.6421-.4256.071-.7131.4735-.6421.8991l.6296 3.7773h-.5572l-2.4598-5.33c-1.1936-2.5864-.6197-5.6546 1.4282-7.6349l.104-.1007c2.6156-2.529 6.7132-2.529 9.3286 0 2.1036 2.0342 2.6479 5.1644 1.3544 7.7892z"/><path d="m28.4674 43.0047v-3.4449c0-.6392-.3862-1.1893-.9373-1.4309v-4.8268c0-.8654-.4739-1.6568-1.2367-2.0656l-2.4997-1.3394c-.7331-.3927-1.5968-.3724-2.3105.055-.7137.4271-1.1397 1.1787-1.1397 2.0105v6.1662c-.5511.2416-.9373.7917-.9373 1.4309v3.445c-.7885.0786-1.4062.7456-1.4062 1.5544v11.0923c0 1.2922 1.0512 2.3435 2.3434 2.3435h7.1866c1.2922 0 2.3434-1.0513 2.3434-2.3435v-11.0923c.0001-.8087-.6176-1.4757-1.406-1.5544zm-6.5616-11.0421c0-.3996.2657-.6018.3798-.6702.1142-.0683.418-.2069.7702-.0183l2.4997 1.3394c.2543.1363.4121.4001.4121.6885v4.6954h-4.0618zm-.9374 7.5972h.1562 5.6243.1562v3.437h-5.9367zm7.3428 16.0917c0 .4307-.3504.7812-.7812.7812h-1.4061v-5.9367c0-.4314-.3497-.7812-.7812-.7812-.4314 0-.7811.3498-.7811.7812v5.9367h-4.2182c-.4307 0-.7811-.3504-.7811-.7812v-11.0923h8.7489z"/><path d="m25.895 46.9752c-.1454-.1453-.3461-.2289-.5523-.2289-.2055 0-.407.0836-.5523.2289-.1453.1454-.2289.3468-.2289.5523s.0836.407.2289.5522c.1453.1453.3468.229.5523.229.2062 0 .4069-.0836.5523-.229.1453-.1452.2289-.3467.2289-.5522s-.0836-.407-.2289-.5523z"/><path d="m40.9658 37.2164h-3.5933v-7.6553h1.3289c.4314 0 .7812-.3498.7812-.7812s-.3497-.7812-.7812-.7812h-1.3289v-.9373h1.3289c.4314 0 .7812-.3498.7812-.7812s-.3497-.7812-.7812-.7812h-1.3289v-.9373h1.3289c.4314 0 .7812-.3498.7812-.7812s-.3497-.7811-.7812-.7811h-1.3289v-.9374h1.3289c.4314 0 .7812-.3497.7812-.7811 0-.4315-.3497-.7812-.7812-.7812h-1.3289v-.9374h1.3289c.4314 0 .7812-.3497.7812-.7811s-.3497-.7812-.7812-.7812h-4.22c-.4314 0-.7812.3498-.7812.7812s.3497.7811.7812.7811h1.3288v.9374h-1.3289c-.4314 0-.7811.3497-.7811.7812 0 .4314.3496.7811.7811.7811h1.3289v.9374h-1.3289c-.4314 0-.7811.3497-.7811.7811s.3496.7812.7811.7812h1.3289v.9373h-1.3289c-.4314 0-.7811.3498-.7811.7812s.3496.7812.7811.7812h1.3289v.9373h-1.3289c-.4314 0-.7811.3498-.7811.7812s.3496.7812.7811.7812h1.3289v7.6553h-3.5932c-.4314 0-.7812.3497-.7812.7811v8.7257c0 3.8423 1.0526 7.6098 3.0442 10.8955.1416.2335.3948.3761.668.3761h2.8867c.2732 0 .5265-.1426.668-.3761 1.9916-3.2857 3.0442-7.0533 3.0442-10.8955v-8.7257c0-.4315-.3497-.7811-.7811-.7811zm-.7812 9.5067c0 3.4107-.8963 6.7583-2.5957 9.7095h-1.9953c-1.6993-2.9513-2.5956-6.2988-2.5956-9.7095v-4.5075h4.7072c.4314 0 .7812-.3497.7812-.7811s-.3497-.7812-.7812-.7812h-4.7072v-1.8748h7.1865v7.9446z"/><path d="m51.048 49.8225c-.1453-.1453-.3468-.2289-.5522-.2289-.2055 0-.407.0835-.5523.2289-.1453.1453-.2289.3468-.2289.5523s.0836.407.2289.5522c.1453.1461.3468.229.5523.229.2054 0 .4069-.0829.5522-.229.1453-.1452.2289-.346.2289-.5522 0-.2055-.0836-.407-.2289-.5523z"/></g></svg>

<svg width="76" height="76" viewBox="0 0 76 76" fill="none" xmlns="http://www.w3.org/2000/svg">
<circle cx="38" cy="38" r="38" fill="#E4E4E4"/>
<path d="M55.4729 20.3256C53.922 18.8259 51.8798 18.0001 49.7225 18.0001C47.5652 18.0001 45.523 18.826 43.972 20.3257L43.868 20.4264C41.3435 22.8676 40.6359 26.6502 42.1076 29.8389L44.7136 35.4858V54.5055C44.7136 56.4296 46.2789 57.9949 48.2031 57.9949H50.9105C52.8345 57.9949 54.3998 56.4296 54.3998 54.5055V35.4941L57.1426 29.9284C58.7371 26.6925 58.0662 22.8334 55.4729 20.3256ZM52.8375 54.5054C52.8375 55.568 51.973 56.4326 50.9104 56.4326H48.203C47.1403 56.4326 46.2758 55.568 46.2758 54.5054V42.6062H49.7145V47.641C49.7145 48.0724 50.0641 48.4222 50.4956 48.4222C50.927 48.4222 51.2768 48.0724 51.2768 47.641V42.6062H52.8374V54.5054H52.8375ZM46.2758 41.0439V36.0765H47.4608C47.462 36.0765 47.4631 36.0767 47.4641 36.0767C47.4654 36.0767 47.4666 36.0765 47.4678 36.0765H51.873C51.8742 36.0765 51.8755 36.0767 51.8766 36.0767C51.8778 36.0767 51.8789 36.0765 51.88 36.0765H52.8374V41.0439H46.2758ZM55.7411 29.2379L53.141 34.5143H52.7979L53.4274 30.7369C53.4984 30.3114 53.2109 29.9089 52.7853 29.8379C52.3598 29.7672 51.9573 30.0545 51.8863 30.4801L51.214 34.5143H50.3378V30.6085C50.3378 30.1772 49.9881 29.8273 49.5566 29.8273C49.1252 29.8273 48.7755 30.1771 48.7755 30.6085V34.5143H48.1268L47.4544 30.48C47.3835 30.0547 46.9809 29.7672 46.5554 29.8379C46.1298 29.9089 45.8423 30.3114 45.9133 30.737L46.5429 34.5143H45.9857L43.5259 29.1843C42.3323 26.5979 42.9062 23.5297 44.9541 21.5494L45.0581 21.4487C47.6737 18.9197 51.7713 18.9197 54.3867 21.4487C56.4903 23.4829 57.0346 26.6131 55.7411 29.2379Z" fill="black"/>
<path d="M28.4674 43.0047V39.5598C28.4674 38.9206 28.0812 38.3705 27.5301 38.1289V33.3021C27.5301 32.4367 27.0562 31.6453 26.2934 31.2365L23.7937 29.8971C23.0606 29.5044 22.1969 29.5247 21.4832 29.9521C20.7695 30.3792 20.3435 31.1308 20.3435 31.9626V38.1288C19.7924 38.3704 19.4062 38.9205 19.4062 39.5597V43.0047C18.6177 43.0833 18 43.7503 18 44.5591V55.6514C18 56.9436 19.0512 57.9949 20.3434 57.9949H27.53C28.8222 57.9949 29.8734 56.9436 29.8734 55.6514V44.5591C29.8735 43.7504 29.2558 43.0834 28.4674 43.0047ZM21.9058 31.9626C21.9058 31.563 22.1715 31.3608 22.2856 31.2924C22.3998 31.2241 22.7036 31.0855 23.0558 31.2741L25.5555 32.6135C25.8098 32.7498 25.9676 33.0136 25.9676 33.302V37.9974H21.9058V31.9626ZM20.9684 39.5598H21.1246H26.7489H26.9051V42.9968H20.9684V39.5598H20.9684ZM28.3112 55.6515C28.3112 56.0822 27.9608 56.4327 27.53 56.4327H26.1239V50.496C26.1239 50.0646 25.7742 49.7148 25.3427 49.7148C24.9113 49.7148 24.5616 50.0646 24.5616 50.496V56.4327H20.3434C19.9127 56.4327 19.5623 56.0823 19.5623 55.6515V44.5592H28.3112V55.6515Z" fill="black"/>
<path d="M25.895 46.9752C25.7496 46.8299 25.5489 46.7463 25.3427 46.7463C25.1372 46.7463 24.9357 46.8299 24.7904 46.9752C24.6451 47.1206 24.5615 47.322 24.5615 47.5275C24.5615 47.733 24.6451 47.9345 24.7904 48.0797C24.9357 48.225 25.1372 48.3087 25.3427 48.3087C25.5489 48.3087 25.7496 48.2251 25.895 48.0797C26.0403 47.9345 26.1239 47.733 26.1239 47.5275C26.1239 47.322 26.0403 47.1205 25.895 46.9752Z" fill="black"/>
<path d="M40.9658 37.2164H37.3725V29.5611H38.7014C39.1328 29.5611 39.4826 29.2113 39.4826 28.7799C39.4826 28.3485 39.1329 27.9987 38.7014 27.9987H37.3725V27.0614H38.7014C39.1328 27.0614 39.4826 26.7116 39.4826 26.2802C39.4826 25.8488 39.1329 25.499 38.7014 25.499H37.3725V24.5617H38.7014C39.1328 24.5617 39.4826 24.2119 39.4826 23.7805C39.4826 23.3491 39.1329 22.9994 38.7014 22.9994H37.3725V22.062H38.7014C39.1328 22.062 39.4826 21.7123 39.4826 21.2809C39.4826 20.8494 39.1329 20.4997 38.7014 20.4997H37.3725V19.5623H38.7014C39.1328 19.5623 39.4826 19.2126 39.4826 18.7812C39.4826 18.3498 39.1329 18 38.7014 18H34.4814C34.05 18 33.7002 18.3498 33.7002 18.7812C33.7002 19.2126 34.0499 19.5623 34.4814 19.5623H35.8102V20.4997H34.4813C34.0499 20.4997 33.7002 20.8494 33.7002 21.2809C33.7002 21.7123 34.0498 22.062 34.4813 22.062H35.8102V22.9994H34.4813C34.0499 22.9994 33.7002 23.3491 33.7002 23.7805C33.7002 24.2119 34.0498 24.5617 34.4813 24.5617H35.8102V25.499H34.4813C34.0499 25.499 33.7002 25.8488 33.7002 26.2802C33.7002 26.7116 34.0498 27.0614 34.4813 27.0614H35.8102V27.9987H34.4813C34.0499 27.9987 33.7002 28.3485 33.7002 28.7799C33.7002 29.2113 34.0498 29.5611 34.4813 29.5611H35.8102V37.2164H32.217C31.7856 37.2164 31.4358 37.5661 31.4358 37.9975V46.7232C31.4358 50.5655 32.4884 54.333 34.48 57.6187C34.6216 57.8522 34.8748 57.9948 35.148 57.9948H38.0347C38.3079 57.9948 38.5612 57.8522 38.7027 57.6187C40.6943 54.333 41.7469 50.5654 41.7469 46.7232V37.9975C41.7469 37.566 41.3972 37.2164 40.9658 37.2164ZM40.1846 46.7231C40.1846 50.1338 39.2883 53.4814 37.5889 56.4326H35.5936C33.8943 53.4813 32.998 50.1338 32.998 46.7231V42.2156H37.7052C38.1366 42.2156 38.4864 41.8659 38.4864 41.4345C38.4864 41.0031 38.1367 40.6533 37.7052 40.6533H32.998V38.7785H40.1845V46.7231H40.1846Z" fill="black"/>
<path d="M51.048 49.8225C50.9027 49.6772 50.7012 49.5936 50.4958 49.5936C50.2903 49.5936 50.0888 49.6771 49.9435 49.8225C49.7982 49.9678 49.7146 50.1693 49.7146 50.3748C49.7146 50.5803 49.7982 50.7818 49.9435 50.927C50.0888 51.0731 50.2903 51.156 50.4958 51.156C50.7012 51.156 50.9027 51.0731 51.048 50.927C51.1933 50.7818 51.2769 50.581 51.2769 50.3748C51.2769 50.1693 51.1933 49.9678 51.048 49.8225Z" fill="black"/>
</svg>
